icon/pk/medical-files.svg

<svg viewBox="0 0 48 48" fill="none" xmlns="http://www.w3.org/2000/svg" height="1em" width="1em">
  <path d="M23 42H19H15H9C7.89543 42 7 41.1046 7 40V8C7 6.89543 7.89543 6 9 6H37C38.1046 6 39 6.89543 39 8V15V19.5" stroke="black" stroke-width="4" stroke-linecap="round" stroke-linejoin="round"/>
  <path d="M36.6364 27C39.0463 27 41 28.8804 41 31.2C41 34.2196 38.0909 36.8 36.6364 38.2C35.6667 39.1333 34.4545 40.0667 33 41C31.5455 40.0667 30.3333 39.1333 29.3636 38.2C27.9091 36.8 25 34.2196 25 31.2C25 28.8804 26.9537 27 29.3636 27C30.8814 27 32.2182 27.7459 33 28.8775C33.7818 27.7459 35.1186 27 36.6364 27Z" fill="#2F88FF" stroke="black" stroke-width="4" stroke-linejoin="round"/>
  <path d="M15 14H31" stroke="black" stroke-width="4" stroke-linecap="round"/>
</svg>

<svg width="48" height="48" fill="none" xmlns="http://www.w3.org/2000/svg"><path d="M23 42H9a2 2 0 0 1-2-2V8a2 2 0 0 1 2-2h28a2 2 0 0 1 2 2v11.5" stroke="#000" stroke-width="4" stroke-linecap="round" stroke-linejoin="round"/><path d="M36.636 27C39.046 27 41 28.88 41 31.2c0 3.02-2.91 5.6-4.364 7-.97.933-2.181 1.867-3.636 2.8-1.454-.933-2.667-1.867-3.636-2.8-1.455-1.4-4.364-3.98-4.364-7 0-2.32 1.954-4.2 4.364-4.2 1.517 0 2.854.746 3.636 1.878A4.406 4.406 0 0 1 36.636 27Z" fill="#2F88FF" stroke="#000" stroke-width="4" stroke-linejoin="round"/><path d="M15 14h16" stroke="#000" stroke-width="4" stroke-linecap="round"/></svg>
